X:1
T:Title
%%score { 1 | ( 2 3 ) }
L:1/8
Q:1/4=84
M:4/4
K:Ab
V:1 treble nm="Grand Piano"
V:2 bass 
V:3 bass 
V:1
 [CA]2 [CA]>[DB] [CA]2 [CE][CA] | [Ec]2 [Ec]>[Fd] [Ec]2 [EA]2 | F2 A>A E2 [EA]2 | B2 B>c B4 | %4
w: Charles~H.~Gabriel * * * * *||||
 [Ec]2 [Ec]>[Fd] [Ec]2 [EA]2 | [FA]2 [FA]>[FB] [FA]2 F2 | E2 E>E A3 B | c2 B>B [CA]4 | %8
w: ||||
 B2 B>=A B3 c | [CA]2 [CA]2 [CE]3 E | [Gd]2 [Gd]2 [Gd]3 e | c2 c2 c2 cd | e2 e2 [Ed]2 [Ec]2 | %13
w: |||||
 [FB]2 [FA]2 [EG]2 F2 | E2 E2 [EA]3 [Fd] | [Ec]2 [DB]2 [CA]4 |] %16
w: |||
V:2
 [A,,E,]2 [A,,E,]>[A,,E,] [A,,E,]2 [A,,A,][A,,E,] | [A,,A,]2 [A,,A,]>[A,,A,] [A,,A,]2 [C,A,]2 | %2
 [D,A,D]2 [F,A,D]>[F,A,D] [A,C]2 [C,A,]2 | [E,G,E]2 [E,G,E]>[E,A,E] [E,G,E]4 | %4
 [A,,A,]2 [A,,A,]>[A,,A,] [A,,A,]2 [C,A,]2 | [D,D]2 [D,D]>[D,D] [D,D]2 [D,A,D]2 | %6
 [E,A,C]2 [E,A,C]>[E,A,C] [F,A,C]3 [F,A,=D] | [E,A,E]2 [E,G,D]>[E,G,D] [A,,A,]4 | %8
 [E,G,D]2 [E,G,D]>[E,_G,C] [E,=G,D]3 [E,G,E] | [A,,A,]2 [A,,A,]2 [A,,A,]3 [A,C] | %10
 [E,B,]2 [E,B,]2 [E,B,]3 [G,B,E] | z4 z2 [A,E]2 | [A,CE]2 [A,,CE]2 [B,,G,]2 [C,A,]2 | %13
 [D,D]2 [D,D]2 [D,D]2 [D,A,D]2 | [E,A,C]2 [D,B,]2 [C,A,]3 [D,A,] | [E,A,]2 [E,G,]2 [A,,A,]4 |] %16
V:3
 x8 | x8 | x8 | x8 | x8 | x8 | x8 | x8 | x8 | x8 | x8 | [A,E]2 [A,E]2 [A,E]2 z B, | x8 | x8 | x8 | %15
 x8 |] %16

